X:236
T:Mickey Doherty's
Z: id:dc-reel-216
M:C
L:1/8
K:D Major
A|d2fa gfed|cAA2 cdec|d2fa gfed|cABc dABc|!
d2fa gfed|cAA2 cdec|d2fa gfed|cABc d3:|!
K: D Mixolydian
D|FGAB cAGE|D2FD ADFD|FGAB cAGc|BdcA GFDE|!
FGAB cAGE|D2FD ADFD|FGAB cAGc|BdcA G3:|!

